X:491
T:Mala ja frajera hodzinara
Z:Jack Campin, http://www.campin.me.uk/
F:Jack Campin's Nine-Note Tunebook
% last edit 26-02-2013
S:Slovenske Ludove Pienske v.3
M:2/4
L:1/8
Q:1/4=138
K:DMin
(3d2 d2  d2   |   c c2  B |  AG   A2 |D2 z2 |
  d d2    d   |   c c2  B |  AG   A2 |D2 z2 |
  DE   (F2{E})|   D2   z2 |  Gc   B2 |A2 z2 |
(3A2 d2  c2   |(3 B2 A2 c2|(3B2 A2 G2|D2 z2|]


% == Hungarian songs and dance tunes ========================================

